X:1
T:Title
%%score { ( 1 4 ) | ( 2 3 ) }
L:1/8
M:6/8
K:G
V:1 treble nm="Grand Piano"
V:4 treble 
V:2 bass 
V:3 bass 
V:1
 z3 z2[Q:1/4=95] [B,D] | [B,D]2 [B,G] [EG]F[G,CE] | [G,B,D]3- [G,B,D]2 [DB] | %3
 [Fd]2 [FA] [FA][GB][Ac] |[M:5/8] [GB]-[GB]- [GB]3 |[M:1/8] [B,D] | %6
[M:3/4] [B,D]2 [B,G][EG] [DF][CE] | [B,D]4- [B,D][DB] | z2 z E z2[K:bass] | %9
[M:5/8] [F,D]-[F,D]- [F,D]3 |[M:3/4][K:treble] [Fd]3 [FA] [GB][Ac] | c3 B2 B | %12
 [Fd]2 [FA][FA] [GB][Ac] | [GB]6 | [DB]3 B A[=FG] | [EG]3 E3 | z2 z .B3 | %17
[M:5/8] [B,G]-[B,G]- [B,G]3 |] %18
V:2
 z3 z2 [G,,G,] | z3 .[C,G,]3 | G,,3- G,,2 G, | [D,A,]2 [D,D] [D,D]2 [D,D] | %4
[M:5/8] [G,D]-[G,D]- [G,D]3 |[M:1/8] [G,,G,] |[M:3/4] [G,,G,]2 [G,,G,] [C,G,]2 [C,G,] | %7
 [G,,G,]4- [G,,G,][G,,G,] | [A,,F,]2 .A,,2 FA,, |[M:5/8] D,-D,- D,3 |[M:3/4] [D,A,]3 [D,D]2 [D,D] | %11
 [G,EG]3 [G,DG]2 [G,DG] | [D,D]2 [D,D] [D,D]2 [D,D] | [G,D]6 | [G,,G,]3 [G,,G,] [A,,F,][B,,G,] | %15
 [C,G,]3 [C,G,C]3 | [D,G,B,]2 [D,G,D]D z [D,F,^C] |[M:5/8] [G,,G,]-[G,,G,]- [G,,G,]3 |] %18
V:3
 x6 | [G,,G,]2 [G,,G,] z DC, | x6 | x6 |[M:5/8] x5 |[M:1/8] x |[M:3/4] x6 | x6 | z2 z .A,,3 | %9
[M:5/8] x5 |[M:3/4] x6 | x6 | x6 | x6 | x6 | x6 | z2 z .[D,F,]3 |[M:5/8] x5 |] %18
V:4
 x6 | x6 | x6 | x6 |[M:5/8] x5 |[M:1/8] x |[M:3/4] x6 | x6 | [DA]2 [A,DF] [G,^C]2[K:bass] [G,CE] | %9
[M:5/8] x5 |[M:3/4][K:treble] x6 | x6 | x6 | x6 | z2 z .D3 | x6 | D2 .B2 CA |[M:5/8] x5 |] %18

